X:3
K:A
T:Qecp?ro
W:I MacG
Z:Transcrit et/ou cervouviele@free.fr
M:2/2
K:G
cB c2 | cc B2 | c


*****************************


900 1 1.3199832 

<start>
M:F|-8 GBE|F2B/2|||
|: f2 cd | {b2z | T3 (c/e/f/) |
=B/c/=B cF | B3 c2z |
G2 Bo!S | d>c>ed | cB z


*****************************


1000 1 1.6071132 

<start>
